X: 1
T: the Rabbitskin Hat
C: Freeland Barbour, 1985
B: The Hills of Atholl
B: SRSNH 2.23
Z: John Chambers <jc:trillian.mit.edu>
R: march
M: C
L: 1/4
K: D
|: A \
|| "D"d>e fa | a2 fd | "Em"e>f "E7"g/f/e/d/ | "A7"c/e/A ce \
|  "D"d>e fa | a2 fd | "A7"g/f/e/d/ ce | "D"d2 d :|
|: f/g/ \
|| "D"aA/a/ f/a/f | d2 Ae/f/ | "Em"g>a g/f/e/d/ | "A7"c/d/e/c/ Af/g/ \
|  "D"aA/a/ f/a/f | d2 Ae/f/ | "A7"g/f/e/d/ ce | "D"d2 df/g/ ||
|| "D"aA/a/ f/a/f | d2 Ae/f/ | "Em"g>a g/f/e/d/ | "A7"c/d/e/c/ Ad/e/ \
|  "D"fA g/f/e/d/ | "G"B>A GB | "A7"cA e/A/f/e/ | "D"d2 d |]

